svgs/icons/sm/services.svg

<svg xmlns="http://www.w3.org/2000/svg" viewBox="0 0 16 16" enable-background="new 0 0 16 16"><g fill="#34363D"><circle cx="7.998" cy="1.5" r="1.5"/><path d="M5.334 8h5.333l.292-2.188c.127-.96-.619-1.812-1.587-1.812h-.372l-.757 3.03c-.063.253-.422.253-.485 0l-.758-3.03h-.372c-.968 0-1.714.852-1.586 1.812l.292 2.188zM13.567 10h-11.134c-.239 0-.433-.194-.433-.433v-.134c0-.239.194-.433.433-.433h11.134c.239 0 .433.194.433.433v.134c0 .239-.194.433-.433.433zM9.591 16h-3.182c-.378 0-.699-.371-.753-.87l-.656-6.13h6l-.657 6.13c-.053.499-.374.87-.752.87z"/></g></svg>

<svg xmlns="http://www.w3.org/2000/svg" viewBox="0 0 16 16"><g fill="#34363D"><circle cx="7.998" cy="1.5" r="1.5"/><path d="M5.334 8h5.333l.292-2.188A1.601 1.601 0 0 0 9.372 4H9l-.757 3.03c-.063.253-.422.253-.485 0L7 4h-.372a1.6 1.6 0 0 0-1.586 1.812L5.334 8zm8.233 2H2.433A.433.433 0 0 1 2 9.567v-.134C2 9.194 2.194 9 2.433 9h11.134c.239 0 .433.194.433.433v.134a.433.433 0 0 1-.433.433zm-3.976 6H6.409c-.378 0-.699-.371-.753-.87L5 9h6l-.657 6.13c-.053.499-.374.87-.752.87z"/></g></svg>
